packages/core/src/svgs/dusk.svg

<svg width="24" height="24" viewBox="0 0 24 24" fill="none" xmlns="http://www.w3.org/2000/svg">
<g clip-path="url(#clip0_31_9593)">
<path d="M0 0H24V24H0V0Z" fill="#523B97"/>
<path d="M7.33279 5.17693C8.40581 5.07012 9.48929 5.19046 10.5127 5.53012C11.5361 5.86979 12.4766 6.42117 13.2728 7.14836C13.9521 7.7604 14.4953 8.50835 14.867 9.34373C15.2388 10.1791 15.4309 11.0833 15.4309 11.9976C15.4309 12.912 15.2388 13.8162 14.867 14.6516C14.4953 15.4869 13.9521 16.2349 13.2728 16.8469C12.4769 17.5749 11.5367 18.1271 10.5132 18.4675C9.48978 18.8079 8.40611 18.9289 7.33279 18.8226C7.32061 18.8217 7.30918 18.8164 7.30054 18.8078C7.2919 18.7991 7.28662 18.7877 7.28565 18.7755C7.28565 18.7498 7.30707 18.7284 7.33279 18.7241C9.00422 18.5698 10.7614 17.8884 11.9442 16.7869C13.3156 15.5098 14.1428 13.7998 14.1428 11.9998C14.1428 10.1998 13.3156 8.50265 11.9442 7.22551C10.7614 6.12408 8.99993 5.42551 7.33279 5.27122C7.32681 5.27182 7.32077 5.27116 7.31507 5.26927C7.30936 5.26739 7.30412 5.26433 7.29967 5.26029C7.29523 5.25625 7.29168 5.25132 7.28926 5.24582C7.28685 5.24032 7.28561 5.23437 7.28565 5.22836C7.28565 5.20265 7.30707 5.17693 7.33279 5.17693Z" fill="white"/>
<path d="M17.3145 10.2856H8.79879C8.73451 10.2856 8.58451 10.4442 8.57165 10.6885C8.56308 10.9328 8.70879 11.1428 8.79879 11.1428H17.3145C17.4088 11.1428 17.5717 10.9585 17.5717 10.6885C17.5717 10.4185 17.4259 10.2856 17.3145 10.2856ZM17.3145 12.8571H8.79879C8.73451 12.8571 8.58451 13.0156 8.57165 13.2599C8.56308 13.5042 8.70879 13.7142 8.79879 13.7142H17.3145C17.4088 13.7142 17.5717 13.5299 17.5717 13.2599C17.5717 12.9899 17.4259 12.8571 17.3145 12.8571Z" fill="white"/>
</g>
<defs>
<clipPath id="clip0_31_9593">
<rect width="24" height="24" fill="white"/>
</clipPath>
</defs>
</svg>

<svg xmlns="http://www.w3.org/2000/svg" width="24" height="24" fill="none" viewBox="0 0 24 24"><g clip-path="url(#a)"><path fill="#523B97" d="M0 0h24v24H0z"/><path fill="#fff" d="M7.333 5.177a7.68 7.68 0 0 1 5.94 1.971 6.526 6.526 0 0 1 0 9.699 7.68 7.68 0 0 1-5.94 1.976.05.05 0 0 1-.047-.047c0-.026.021-.048.047-.052 1.671-.154 3.428-.836 4.611-1.937C13.316 15.51 14.143 13.8 14.143 12s-.827-3.497-2.199-4.774C10.761 6.124 9 5.426 7.333 5.27a.043.043 0 0 1-.047-.043c0-.025.021-.051.047-.051"/><path fill="#fff" d="M17.315 10.286H8.798c-.064 0-.214.158-.227.402-.009.245.137.455.227.455h8.516c.094 0 .257-.184.257-.455 0-.27-.146-.402-.258-.402m0 2.571H8.798c-.064 0-.214.159-.227.403-.009.244.137.454.227.454h8.516c.094 0 .257-.184.257-.454s-.146-.403-.258-.403"/></g><defs><clipPath id="a"><path fill="#fff" d="M0 0h24v24H0z"/></clipPath></defs></svg>
